X: 660
T: Huckleberry Hornpipe
C:Byron Berline
B: jims roots
M:4/4
L:1/8
R: Hornpipe
Q: 1/4=100
K:A
V:1 
%Q:260
%S:Arrangement: Dr. Gary Smith
|: "E"(3efg | "A"a2 e2 c2 (3cd^d | e2 c2 A2 (3ABc  | "D"=d2 A2 "F#m"F2 (3F=G^G | "D"ABAF "E7"D2 (3G=G^ F |
"E"E^DEF "E7"G=G^GA | B^ABc "D"dcB=A | "E7"efed "A"cABG | A2 Ac "D"(3def:|
|:"E7"(3a^g=g | "D"fdAd "F#m"fa=gf | "A"eaec Acec | "D"dcBA "E7"GABc | "A"ABcd "E"e2(3ag=g |
"D"fdAd "F#m"fa=gf | "A"eaec Acea | "E7"bagf edcB | "A"A2 Ac "D"(3def:|
|:(3EFG | AGAB "A"c^Bcd | "E"e^def "C#m"=gfec | "E7"dcde "F#m"f^efg | "A"abag "D"fedf |
"E"e^def "E7"gfga | bc'ba "E"gfeg | "E7"efed "A"c'abg | a2 ec "D"(3def:|
% abcbook-tune_id 6298c25db970a16b96f22666


% abcbook-boost 0
% abcbook-tablature 
% abcbook-transpose 
% abcbook-lastupdated 1654178398903
% abcbook-soundfonts 
% abcbook-repeats 1


